src/assets/image/appStore.svg

<svg width="179" height="59" viewBox="0 0 179 59" fill="none" xmlns="http://www.w3.org/2000/svg">
<g clip-path="url(#clip0_1440_3548)">
<path d="M178.165 52.5827C178.165 55.8539 175.835 58.3816 173.094 58.3816H5.07086C2.32985 58.3816 0 55.8539 0 52.5827V6.19192C0 3.06946 2.32985 0.393066 5.07086 0.393066H172.957C175.835 0.393066 178.028 3.06946 178.028 6.19192L178.165 52.5827Z" fill="#1F1F1F"/>
<path d="M39.0594 29.0902C39.0594 24.4808 42.6227 22.1018 42.7597 22.1018C40.704 18.8307 37.5518 18.5333 36.4554 18.3846C33.8515 18.0872 31.2475 20.0202 29.877 20.0202C28.5065 20.0202 26.4508 18.3846 24.258 18.3846C21.3799 18.3846 18.776 20.1689 17.2684 22.994C14.2533 28.6441 16.4461 37.1194 19.4612 41.7287C20.9688 43.959 22.6134 46.4868 24.8062 46.4868C26.999 46.3381 27.8213 44.9999 30.4252 44.9999C33.0292 44.9999 33.8515 46.4868 36.0443 46.4868C38.3741 46.4868 39.8817 44.2564 41.2522 41.8774C42.8968 39.3497 43.582 36.6733 43.582 36.6733C43.582 36.5246 39.1964 34.7404 39.0594 29.0902Z" fill="#FEFEFE"/>
<path d="M34.8105 15.262C36.044 13.6264 36.7293 11.5448 36.5922 9.31445C34.9476 9.46314 32.7548 10.6527 31.5213 12.1395C30.4249 13.4777 29.4656 15.7081 29.7397 17.7897C31.6584 18.0871 33.5771 16.8976 34.8105 15.262Z" fill="#FEFEFE"/>
<path d="M70.5809 46.0404H67.5658L65.9212 40.3903H60.1651L58.5205 46.0404H55.5054L61.2615 26.7109H64.8248L70.5809 46.0404ZM65.373 38.0113L63.8654 32.9559C63.7284 32.5098 63.4543 31.1716 62.9061 29.3873C62.769 30.2795 62.4949 31.469 62.0838 32.9559L60.5762 38.0113H65.373Z" fill="#FEFEFE"/>
<path d="M85.3822 38.9034C85.3822 41.2824 84.834 43.2154 83.6006 44.5536C82.5042 45.7431 81.2707 46.3378 79.6261 46.3378C77.9815 46.3378 76.7481 45.7431 75.9257 44.4049V51.6906H73.0477V36.8218C73.0477 35.3349 73.0477 33.848 72.9106 32.2124H75.3775L75.5146 34.4427C76.4739 32.8072 77.8444 31.915 79.9002 31.915C81.4078 31.915 82.6412 32.5098 83.7376 33.848C84.834 35.1862 85.3822 36.8218 85.3822 38.9034ZM82.3671 39.0521C82.3671 37.7139 82.093 36.5244 81.5448 35.6323C80.8596 34.7401 80.0373 34.2941 79.0779 34.2941C78.3927 34.2941 77.7074 34.5914 77.1592 35.0375C76.611 35.4836 76.1998 36.227 76.0628 36.9704C75.9257 37.4165 75.9257 37.7139 75.9257 37.8626V40.2416C75.9257 41.2824 76.1998 42.1745 76.748 42.7693C77.2962 43.5127 78.1185 43.8101 78.9408 43.8101C80.0373 43.8101 80.8596 43.3641 81.4078 42.4719C82.093 41.7285 82.3671 40.539 82.3671 39.0521Z" fill="#FEFEFE"/>
<path d="M100.046 38.9034C100.046 41.2824 99.4982 43.2154 98.2648 44.5536C97.3054 45.7431 95.9349 46.4865 94.4274 46.4865C92.7828 46.4865 91.5493 45.8918 90.727 44.5536V51.8393H87.849V36.8218C87.849 35.3349 87.849 33.848 87.7119 32.2124H90.1788L90.3159 34.4427C91.2752 32.8072 92.6457 31.915 94.7015 31.915C96.209 31.915 97.4425 32.5098 98.5389 33.848C99.6353 35.1862 100.046 36.8218 100.046 38.9034ZM97.1684 39.0521C97.1684 37.7139 96.8943 36.5244 96.3461 35.6323C95.7979 34.7401 94.8385 34.2941 93.8792 34.2941C93.1939 34.2941 92.5087 34.5914 91.9605 35.0375C91.4123 35.4836 91.0011 36.227 90.8641 36.9704C90.727 37.4165 90.727 37.7139 90.727 37.8626V40.2416C90.727 41.2824 91.0011 42.1745 91.5493 42.7693C92.0975 43.5127 92.9198 43.8101 93.7421 43.8101C94.8385 43.8101 95.6608 43.3641 96.209 42.4719C96.8943 41.7285 97.1684 40.539 97.1684 39.0521Z" fill="#FEFEFE"/>
<path d="M116.63 40.6877C116.63 42.3232 116.082 43.6614 114.985 44.7022C113.889 45.8918 112.244 46.3378 110.189 46.3378C108.27 46.3378 106.762 45.8918 105.529 45.1483L106.214 42.6206C107.448 43.3641 108.818 43.8101 110.326 43.8101C111.422 43.8101 112.244 43.5127 112.792 43.0667C113.341 42.4719 113.752 41.8772 113.752 40.985C113.752 40.2416 113.478 39.4982 113.067 39.0521C112.518 38.4573 111.696 38.0113 110.6 37.5652C107.448 36.3757 105.94 34.4427 105.94 32.0637C105.94 30.4281 106.488 29.2386 107.585 28.1978C108.681 27.157 110.189 26.7109 111.97 26.7109C113.615 26.7109 114.985 27.0083 115.945 27.6031L115.259 30.1308C114.3 29.536 113.067 29.2386 111.833 29.2386C110.874 29.2386 110.051 29.536 109.503 29.9821C109.092 30.4281 108.818 31.0229 108.818 31.7663C108.818 32.5098 109.092 33.1045 109.64 33.6993C110.051 34.1454 111.011 34.5914 112.244 35.1862C113.752 35.9296 114.848 36.6731 115.671 37.5652C116.219 38.16 116.63 39.3495 116.63 40.6877Z" fill="#FEFEFE"/>
<path d="M126.086 34.4429H122.934V41.2826C122.934 43.0668 123.482 43.8103 124.579 43.8103C125.127 43.8103 125.538 43.8103 125.812 43.6616L125.949 46.0406C125.401 46.338 124.579 46.338 123.756 46.338C122.66 46.338 121.701 45.8919 121.152 45.1485C120.467 44.405 120.193 43.2155 120.193 41.4313V34.4429H118.274V32.0639H120.193V29.5362L122.934 28.644V32.0639H126.086V34.4429Z" fill="#FEFEFE"/>
<path d="M140.203 39.0521C140.203 41.1337 139.654 42.918 138.558 44.2562C137.324 45.7431 135.817 46.3378 133.898 46.3378C131.98 46.3378 130.472 45.5944 129.376 44.2562C128.279 42.918 127.731 41.1337 127.731 39.0521C127.731 36.8218 128.279 35.1862 129.513 33.6993C130.609 32.3611 132.254 31.6177 134.172 31.6177C136.091 31.6177 137.599 32.3611 138.695 33.6993C139.654 35.1862 140.203 36.9705 140.203 39.0521ZM137.324 39.0521C137.324 37.7139 137.05 36.6731 136.502 35.781C135.954 34.7401 134.995 34.1454 133.898 34.1454C132.802 34.1454 131.842 34.7401 131.294 35.781C130.746 36.6731 130.472 37.8626 130.472 39.0521C130.472 40.3903 130.746 41.4311 131.294 42.3232C131.98 43.3641 132.802 43.9588 133.898 43.9588C134.995 43.9588 135.817 43.3641 136.502 42.3232C137.05 41.4311 137.324 40.3903 137.324 39.0521Z" fill="#FEFEFE"/>
<path d="M149.522 34.8888C149.248 34.8888 148.974 34.7401 148.562 34.7401C147.603 34.7401 146.781 35.1862 146.233 35.9296C145.821 36.6731 145.547 37.5652 145.547 38.7547V46.0405H142.669V36.5244C142.669 34.8888 142.669 33.4019 142.532 32.2124H144.999L145.136 34.8888H145.273C145.547 33.9967 146.096 33.2532 146.644 32.6585C147.329 32.2124 148.014 31.915 148.699 31.915C148.974 31.915 149.248 31.915 149.385 31.915L149.522 34.8888Z" fill="#FEFEFE"/>
<path d="M162.267 38.4573C162.267 39.0521 162.267 39.4982 162.13 39.7955H153.633C153.633 41.1337 154.044 42.1745 154.867 42.918C155.552 43.5127 156.511 43.9588 157.608 43.9588C158.841 43.9588 160.074 43.8101 161.034 43.3641L161.445 45.4457C160.212 46.0404 158.841 46.3378 157.196 46.3378C155.141 46.3378 153.633 45.7431 152.537 44.4049C151.44 43.0667 150.892 41.4311 150.892 39.3495C150.892 37.2678 151.44 35.4836 152.537 34.1454C153.633 32.6585 155.141 31.915 157.059 31.915C158.978 31.915 160.349 32.6585 161.308 34.1454C161.856 35.3349 162.267 36.6731 162.267 38.4573ZM159.526 37.7139C159.526 36.8218 159.389 36.0783 158.978 35.3349C158.43 34.4427 157.745 33.9967 156.648 33.9967C155.689 33.9967 155.004 34.4427 154.318 35.1862C153.907 35.9296 153.496 36.6731 153.496 37.5652H159.526V37.7139Z" fill="#FEFEFE"/>
<path d="M64.0023 19.871H62.4947L61.6724 17.046H58.9314L58.1091 19.871H56.6016L59.4796 10.355H61.2613L64.0023 19.871ZM61.5354 15.8565L60.8501 13.3288C60.7131 13.0314 60.576 12.4366 60.439 11.5445C60.3019 11.9906 60.1649 12.5853 60.0278 13.3288L59.3426 15.8565H61.5354Z" fill="#FEFEFE"/>
<path d="M71.1288 13.0317L68.799 19.8714H67.4285L65.0986 13.0317H66.6062L67.7026 16.6003C67.8396 17.195 67.9767 17.7898 68.1137 18.3845C68.2508 17.9385 68.3878 17.3437 68.5249 16.6003L69.6213 13.0317H71.1288Z" fill="#FEFEFE"/>
<path d="M77.4335 19.8714H76.2L76.063 19.128C75.6518 19.7227 74.9666 20.0201 74.2813 20.0201C73.7331 20.0201 73.1849 19.8714 72.7738 19.4254C72.4997 18.9793 72.2256 18.5332 72.2256 18.0872C72.2256 17.195 72.4997 16.6003 73.1849 16.1542C73.8702 15.7081 74.6925 15.5595 75.9259 15.5595V15.2621C75.9259 14.3699 75.5148 13.9239 74.5554 13.9239C73.8702 13.9239 73.322 14.0726 72.9108 14.3699L72.6367 13.3291C73.1849 12.8831 74.0072 12.7344 74.8295 12.7344C76.4741 12.7344 77.2964 13.6265 77.2964 15.5595V18.2359C77.2964 18.9793 77.4335 19.4254 77.4335 19.8714ZM75.9259 17.4924V16.4516C74.4184 16.4516 73.5961 16.8977 73.5961 17.7898C73.5961 18.0872 73.7331 18.3845 73.8702 18.5332C74.0072 18.6819 74.2813 18.8306 74.5554 18.8306C74.8295 18.8306 75.1036 18.6819 75.3777 18.5332C75.6518 18.3845 75.7889 18.0872 75.9259 17.7898V17.4924Z" fill="#FEFEFE"/>
<path d="M81.4076 10.9497C81.4076 11.2471 81.2706 11.3958 81.1335 11.5445C80.9965 11.6932 80.7224 11.8419 80.4483 11.8419C80.1742 11.8419 80.0371 11.6932 79.9001 11.5445C79.763 11.3958 79.626 11.0984 79.626 10.9497C79.626 10.6524 79.763 10.5037 79.9001 10.355C80.0371 10.2063 80.3112 10.0576 80.4483 10.0576C80.7224 10.0576 80.8594 10.2063 80.9965 10.355C81.2706 10.5037 81.4076 10.6524 81.4076 10.9497ZM81.1335 19.8711H79.763V13.0314H81.1335V19.8711Z" fill="#FEFEFE"/>
<path d="M85.1083 9.90918H83.7378V19.8713H85.1083V9.90918Z" fill="#FEFEFE"/>
<path d="M92.3718 19.8714H91.1384L91.0013 19.128C90.4531 19.7227 89.9049 20.0201 89.0826 20.0201C88.5344 20.0201 87.9862 19.8714 87.5751 19.4254C87.301 18.9793 87.0269 18.5332 87.0269 18.0872C87.0269 17.195 87.301 16.6003 87.9862 16.1542C88.6715 15.7081 89.4938 15.5595 90.7272 15.5595V15.2621C90.7272 14.3699 90.3161 13.9239 89.3567 13.9239C88.6715 13.9239 88.1233 14.0726 87.7121 14.3699L87.438 13.3291C87.9862 12.8831 88.8085 12.7344 89.6308 12.7344C91.2754 12.7344 92.0977 13.6265 92.0977 15.5595V18.2359C92.2348 18.9793 92.2348 19.4254 92.3718 19.8714ZM90.8643 17.4924V16.4516C89.3567 16.4516 88.5344 16.8977 88.5344 17.7898C88.5344 18.0872 88.6715 18.3845 88.8085 18.5332C88.9456 18.6819 89.2197 18.8306 89.4938 18.8306C89.7679 18.8306 90.042 18.6819 90.3161 18.5332C90.5902 18.3845 90.7272 18.0872 90.8643 17.7898V17.4924Z" fill="#FEFEFE"/>
<path d="M100.732 16.3028C100.732 17.4923 100.458 18.3844 99.9094 19.1279C99.3612 19.7226 98.813 20.02 97.9907 20.02C97.0314 20.02 96.4832 19.5739 96.072 18.8305L95.935 19.8713H94.5645C94.5645 19.2766 94.5645 18.6818 94.5645 18.0871V9.90918H95.935V14.0725C96.3461 13.329 97.0314 12.883 97.9907 12.883C98.813 12.883 99.3612 13.1803 99.9094 13.7751C100.458 14.5185 100.732 15.262 100.732 16.3028ZM99.2242 16.4515C99.2242 15.8567 99.0871 15.262 98.813 14.8159C98.5389 14.3698 98.1278 14.0725 97.5796 14.0725C97.1684 14.0725 96.8943 14.2211 96.6202 14.3698C96.3461 14.6672 96.2091 14.9646 96.072 15.4107C96.072 15.5593 96.072 15.708 96.072 15.8567V17.0462C96.072 17.4923 96.2091 17.9384 96.4832 18.2357C96.7573 18.5331 97.1684 18.6818 97.5796 18.6818C98.1278 18.6818 98.5389 18.5331 98.813 18.0871C99.0871 17.7897 99.2242 17.1949 99.2242 16.4515Z" fill="#FEFEFE"/>
<path d="M104.158 9.90918H102.788V19.8713H104.158V9.90918Z" fill="#FEFEFE"/>
<path d="M111.833 16.1542C111.833 16.4516 111.833 16.6003 111.833 16.8976H107.584C107.584 17.6411 107.858 18.0871 108.133 18.3845C108.544 18.6819 108.955 18.8306 109.503 18.8306C110.188 18.8306 110.737 18.6819 111.148 18.5332L111.422 19.574C110.874 19.8714 110.188 20.0201 109.366 20.0201C108.407 20.0201 107.584 19.7227 107.036 19.128C106.488 18.5332 106.214 17.6411 106.214 16.6003C106.214 15.5594 106.488 14.6673 107.036 14.0726C107.584 13.3291 108.27 13.0317 109.229 13.0317C110.188 13.0317 110.874 13.3291 111.285 14.0726C111.696 14.5186 111.833 15.2621 111.833 16.1542ZM110.462 15.7081C110.462 15.2621 110.325 14.816 110.188 14.5186C109.914 14.0726 109.64 13.9239 109.092 13.9239C108.681 13.9239 108.27 14.0726 107.996 14.5186C107.721 14.816 107.584 15.2621 107.584 15.7081H110.462Z" fill="#FEFEFE"/>
<path d="M123.482 16.4516C123.482 17.4924 123.208 18.3845 122.66 18.9793C122.112 19.7227 121.289 20.0201 120.33 20.0201C119.371 20.0201 118.685 19.7227 118.137 18.9793C117.589 18.3845 117.315 17.4924 117.315 16.4516C117.315 15.4108 117.589 14.5186 118.137 13.7752C118.685 13.0318 119.508 12.7344 120.467 12.7344C121.426 12.7344 122.112 13.0318 122.66 13.7752C123.208 14.5186 123.482 15.4108 123.482 16.4516ZM121.975 16.4516C121.975 15.8568 121.838 15.2621 121.563 14.816C121.289 14.2213 120.878 14.0726 120.33 14.0726C119.782 14.0726 119.371 14.3699 119.097 14.816C118.822 15.2621 118.685 15.8568 118.685 16.4516C118.685 17.0463 118.822 17.6411 119.097 18.0872C119.371 18.6819 119.782 18.8306 120.33 18.8306C120.878 18.8306 121.289 18.5332 121.563 17.9385C121.838 17.6411 121.975 17.0463 121.975 16.4516Z" fill="#FEFEFE"/>
<path d="M131.02 19.8712H129.649V16.0053C129.649 14.8158 129.238 14.221 128.416 14.221C128.005 14.221 127.731 14.3697 127.456 14.6671C127.182 14.9645 127.045 15.4105 127.045 15.8566V19.8712H125.675V14.9645C125.675 14.3697 125.675 13.7749 125.675 13.0315H126.908V14.0723C127.045 13.7749 127.319 13.4776 127.594 13.3289C128.005 13.0315 128.416 12.8828 128.827 12.8828C129.375 12.8828 129.923 13.0315 130.335 13.4776C130.883 13.9236 131.02 14.6671 131.02 15.7079V19.8712Z" fill="#FEFEFE"/>
<path d="M140.202 14.2213H138.695V17.4925C138.695 18.3846 138.969 18.8307 139.517 18.8307C139.791 18.8307 139.928 18.8307 140.202 18.8307V20.0202C139.928 20.1689 139.517 20.1689 139.106 20.1689C138.558 20.1689 138.147 20.0202 137.872 19.5741C137.598 19.2767 137.461 18.5333 137.461 17.7899V14.2213H136.502V13.0318H137.461V11.6936L138.832 11.2476V12.8831H140.339V14.2213H140.202Z" fill="#FEFEFE"/>
<path d="M147.603 19.8713H146.233V16.0054C146.233 14.8159 145.822 14.2211 144.999 14.2211C144.314 14.2211 143.903 14.5185 143.629 15.262C143.629 15.4107 143.629 15.5593 143.629 15.8567V20.02H142.258V9.90918H143.629V14.0725C144.04 13.329 144.725 13.0316 145.547 13.0316C146.096 13.0316 146.644 13.1803 147.055 13.6264C147.466 14.0725 147.74 14.9646 147.74 15.8567V19.8713H147.603Z" fill="#FEFEFE"/>
<path d="M154.867 16.1542C154.867 16.4516 154.867 16.6003 154.867 16.8976H150.618C150.618 17.6411 150.892 18.0871 151.166 18.3845C151.577 18.6819 151.989 18.8306 152.537 18.8306C153.222 18.8306 153.77 18.6819 154.181 18.5332L154.455 19.574C153.907 19.8714 153.085 20.0201 152.4 20.0201C151.44 20.0201 150.618 19.7227 150.07 19.128C149.522 18.5332 149.248 17.6411 149.248 16.6003C149.248 15.5594 149.522 14.6673 150.07 14.0726C150.618 13.3291 151.303 13.0317 152.263 13.0317C153.222 13.0317 153.907 13.3291 154.318 14.0726C154.593 14.5186 154.867 15.2621 154.867 16.1542ZM153.496 15.7081C153.496 15.2621 153.359 14.816 153.222 14.5186C152.948 14.0726 152.674 13.9239 152.126 13.9239C151.714 13.9239 151.303 14.0726 151.029 14.5186C150.755 14.816 150.618 15.2621 150.618 15.7081H153.496Z" fill="#FEFEFE"/>
</g>
<defs>
<clipPath id="clip0_1440_3548">
<rect width="178.165" height="57.9885" fill="white" transform="translate(0 0.393066)"/>
</clipPath>
</defs>
</svg>

<svg xmlns="http://www.w3.org/2000/svg" width="179" height="59" fill="none"><g clip-path="url(#a)"><path fill="#1F1F1F" d="M178.165 52.583c0 3.27-2.33 5.799-5.071 5.799H5.071C2.33 58.382 0 55.854 0 52.582V6.193C0 3.069 2.33.393 5.07.393h167.887c2.878 0 5.071 2.676 5.071 5.799z"/><path fill="#FEFEFE" d="M39.06 29.09c0-4.61 3.563-6.988 3.7-6.988-2.056-3.271-5.208-3.569-6.305-3.717-2.603-.298-5.207 1.635-6.578 1.635-1.37 0-3.426-1.635-5.619-1.635-2.878 0-5.482 1.784-6.99 4.609-3.015 5.65-.822 14.125 2.193 18.735 1.508 2.23 3.152 4.758 5.345 4.758C27 46.338 27.821 45 30.426 45c2.603 0 3.426 1.487 5.618 1.487 2.33 0 3.838-2.23 5.208-4.61 1.645-2.527 2.33-5.204 2.33-5.204 0-.148-4.386-1.933-4.523-7.583M34.81 15.262a8.94 8.94 0 0 0 1.782-5.948c-1.644.15-3.837 1.339-5.07 2.826-1.097 1.338-2.056 3.568-1.782 5.65 1.918.297 3.837-.892 5.07-2.528M70.58 46.04h-3.014l-1.645-5.65h-5.756l-1.645 5.65h-3.015l5.756-19.33h3.564zm-5.207-8.029-1.508-5.055c-.137-.446-.41-1.784-.959-3.569q-.206 1.338-.822 3.569l-1.508 5.055zM85.382 38.903c0 2.38-.548 4.312-1.781 5.65-1.097 1.19-2.33 1.785-3.975 1.785s-2.878-.595-3.7-1.933v7.286h-2.878V36.82c0-1.486 0-2.973-.137-4.609h2.466l.138 2.23c.959-1.635 2.33-2.527 4.385-2.527 1.508 0 2.741.595 3.838 1.933s1.644 2.974 1.644 5.055m-3.015.15c0-1.34-.274-2.529-.822-3.42q-1.028-1.34-2.467-1.339c-.685 0-1.37.297-1.919.744-.548.446-.96 1.189-1.096 1.932-.137.447-.137.744-.137.893v2.379c0 1.04.274 1.933.822 2.527.548.744 1.37 1.041 2.193 1.041q1.644 0 2.467-1.338c.685-.744.96-1.933.96-3.42M100.046 38.903c0 2.38-.548 4.312-1.781 5.65-.96 1.19-2.33 1.934-3.838 1.934-1.644 0-2.878-.595-3.7-1.933v7.285h-2.878V36.822c0-1.487 0-2.974-.137-4.61h2.467l.137 2.23c.96-1.635 2.33-2.527 4.385-2.527 1.508 0 2.742.595 3.838 1.933s1.507 2.974 1.507 5.055m-2.878.15c0-1.34-.274-2.529-.822-3.42-.548-.893-1.508-1.339-2.467-1.339-.685 0-1.37.297-1.919.744-.548.446-.959 1.189-1.096 1.932-.137.447-.137.744-.137.893v2.379c0 1.04.274 1.933.822 2.527.548.744 1.37 1.041 2.193 1.041q1.645 0 2.467-1.338c.685-.744.96-1.933.96-3.42M116.63 40.688q0 2.452-1.645 4.014c-1.096 1.19-2.741 1.636-4.796 1.636-1.919 0-3.427-.446-4.66-1.19l.685-2.527c1.234.743 2.604 1.19 4.112 1.19 1.096 0 1.918-.298 2.466-.744.549-.595.96-1.19.96-2.082 0-.743-.274-1.487-.685-1.933-.549-.595-1.371-1.04-2.467-1.487-3.152-1.19-4.66-3.122-4.66-5.501 0-1.636.548-2.825 1.645-3.866s2.604-1.487 4.385-1.487c1.645 0 3.015.297 3.975.892l-.686 2.528c-.959-.595-2.192-.892-3.426-.892-.959 0-1.782.297-2.33.743a2.57 2.57 0 0 0-.685 1.784c0 .744.274 1.339.822 1.933.411.446 1.371.892 2.604 1.487 1.508.744 2.604 1.487 3.427 2.38.548.594.959 1.783.959 3.122M126.086 34.443h-3.152v6.84c0 1.784.548 2.527 1.645 2.527.548 0 .959 0 1.233-.148l.137 2.379c-.548.297-1.37.297-2.193.297-1.096 0-2.055-.446-2.604-1.19-.685-.743-.959-1.933-.959-3.717v-6.988h-1.919v-2.38h1.919v-2.527l2.741-.892v3.42h3.152zM140.203 39.052c0 2.082-.549 3.866-1.645 5.204-1.234 1.487-2.741 2.082-4.66 2.082-1.918 0-3.426-.744-4.522-2.082s-1.645-3.122-1.645-5.204c0-2.23.548-3.866 1.782-5.353 1.096-1.338 2.741-2.081 4.659-2.081 1.919 0 3.427.743 4.523 2.081.959 1.487 1.508 3.272 1.508 5.353m-2.879 0c0-1.338-.274-2.379-.822-3.271-.548-1.04-1.507-1.636-2.604-1.636-1.096 0-2.056.595-2.604 1.636-.548.892-.822 2.082-.822 3.271 0 1.338.274 2.38.822 3.271.686 1.041 1.508 1.636 2.604 1.636s1.919-.595 2.604-1.636c.548-.892.822-1.933.822-3.27M149.522 34.889c-.274 0-.548-.149-.96-.149-.959 0-1.781.446-2.329 1.19-.412.743-.686 1.635-.686 2.825v7.285h-2.878v-9.516c0-1.635 0-3.122-.137-4.312h2.467l.137 2.677h.137c.274-.892.823-1.636 1.371-2.23.685-.447 1.37-.744 2.055-.744h.686zM162.267 38.457c0 .595 0 1.041-.137 1.338h-8.497q0 2.008 1.234 3.123a4.2 4.2 0 0 0 2.741 1.04c1.233 0 2.466-.148 3.426-.594l.411 2.082c-1.233.594-2.604.892-4.249.892-2.055 0-3.563-.595-4.659-1.933-1.097-1.338-1.645-2.974-1.645-5.056s.548-3.865 1.645-5.204q1.644-2.23 4.522-2.23c1.919 0 3.29.743 4.249 2.23.548 1.19.959 2.528.959 4.312m-2.741-.743c0-.892-.137-1.636-.548-2.38-.548-.891-1.233-1.337-2.33-1.337-.959 0-1.644.446-2.33 1.19-.411.743-.822 1.486-.822 2.378h6.03zM64.002 19.871h-1.507l-.823-2.825h-2.74l-.823 2.825h-1.507l2.878-9.516h1.781zm-2.467-4.014-.685-2.528q-.206-.446-.411-1.785-.205.67-.411 1.785l-.685 2.528zM71.129 13.032l-2.33 6.84h-1.37l-2.33-6.84h1.507l1.097 3.568.41 1.784q.207-.668.412-1.784l1.096-3.568zM77.434 19.871H76.2l-.137-.743c-.411.595-1.096.892-1.782.892-.548 0-1.096-.149-1.507-.595-.274-.446-.548-.892-.548-1.338 0-.892.274-1.487.959-1.933s1.507-.594 2.74-.594v-.298c0-.892-.41-1.338-1.37-1.338q-1.028 0-1.644.446l-.274-1.04c.548-.447 1.37-.596 2.192-.596 1.645 0 2.467.893 2.467 2.826v2.676c0 .743.137 1.19.137 1.635m-1.508-2.379v-1.04c-1.508 0-2.33.446-2.33 1.338 0 .297.137.595.274.743s.411.298.685.298.549-.15.823-.298c.274-.149.41-.446.548-.743zM81.408 10.95c0 .297-.137.446-.275.595a1 1 0 0 1-.685.297c-.274 0-.41-.149-.548-.298-.137-.148-.274-.446-.274-.594 0-.298.137-.446.274-.595s.411-.297.548-.297c.274 0 .411.148.549.297.274.149.41.297.41.595m-.275 8.921h-1.37v-6.84h1.37zM85.108 9.91h-1.37v9.961h1.37zM92.372 19.871h-1.234l-.137-.743c-.548.595-1.096.892-1.918.892-.549 0-1.097-.149-1.508-.595-.274-.446-.548-.892-.548-1.338 0-.892.274-1.487.96-1.933.684-.446 1.507-.594 2.74-.594v-.298c0-.892-.41-1.338-1.37-1.338q-1.029 0-1.645.446l-.274-1.04c.548-.447 1.37-.596 2.193-.596 1.644 0 2.467.893 2.467 2.826v2.676c.137.743.137 1.19.274 1.635m-1.508-2.379v-1.04c-1.507 0-2.33.446-2.33 1.338 0 .297.137.595.274.743.138.149.412.298.686.298s.548-.15.822-.298c.274-.149.411-.446.548-.743zM100.732 16.303c0 1.19-.274 2.081-.823 2.825-.548.595-1.096.892-1.918.892-.96 0-1.508-.446-1.919-1.19l-.137 1.041h-1.37V9.91h1.37v4.163c.411-.743 1.096-1.189 2.056-1.189.822 0 1.37.297 1.918.892.549.743.823 1.487.823 2.528m-1.508.148c0-.594-.137-1.189-.411-1.635s-.685-.744-1.233-.744c-.412 0-.686.15-.96.298-.274.297-.41.595-.548 1.04v1.637c0 .445.137.891.411 1.189.274.297.685.446 1.097.446.548 0 .959-.149 1.233-.595.274-.297.411-.892.411-1.636M104.158 9.91h-1.37v9.961h1.37zM111.833 16.154v.744h-4.249c0 .743.274 1.19.549 1.486.411.298.822.447 1.37.447.685 0 1.234-.15 1.645-.298l.274 1.041q-.822.446-2.056.446c-.959 0-1.782-.297-2.33-.892s-.822-1.487-.822-2.528.274-1.933.822-2.527c.548-.744 1.234-1.041 2.193-1.041s1.645.297 2.056 1.04c.411.447.548 1.19.548 2.082m-1.371-.446c0-.446-.137-.892-.274-1.19-.274-.445-.548-.594-1.096-.594-.411 0-.822.149-1.096.595-.275.297-.412.743-.412 1.19zM123.482 16.452c0 1.04-.274 1.932-.822 2.527-.548.744-1.371 1.041-2.33 1.041s-1.645-.297-2.193-1.04c-.548-.596-.822-1.488-.822-2.528q0-1.561.822-2.677c.548-.743 1.371-1.04 2.33-1.04s1.645.297 2.193 1.04q.822 1.116.822 2.677m-1.507 0c0-.595-.137-1.19-.412-1.636-.274-.595-.685-.743-1.233-.743s-.959.297-1.233.743-.412 1.04-.412 1.636c0 .594.137 1.19.412 1.635.274.595.685.744 1.233.744q.822 0 1.233-.892c.275-.298.412-.893.412-1.487M131.02 19.871h-1.371v-3.866q0-1.785-1.233-1.784c-.411 0-.685.149-.96.446s-.411.744-.411 1.19v4.014h-1.37v-6.84h1.233v1.041c.137-.297.411-.594.686-.743q.617-.447 1.233-.446c.548 0 1.096.149 1.508.595.548.446.685 1.19.685 2.23zM140.202 14.221h-1.507v3.271q0 1.34.822 1.339h.685v1.19c-.274.148-.685.148-1.096.148-.548 0-.959-.149-1.234-.595-.274-.297-.411-1.04-.411-1.784V14.22h-.959v-1.19h.959v-1.337l1.371-.446v1.635h1.507v1.338zM147.603 19.871h-1.37v-3.866q0-1.785-1.234-1.784c-.685 0-1.096.297-1.37 1.041v4.758h-1.371V9.91h1.371v4.163c.411-.744 1.096-1.041 1.918-1.041.549 0 1.097.148 1.508.594.411.447.685 1.339.685 2.23v4.015zM154.867 16.154v.744h-4.249c0 .743.274 1.19.548 1.486a2.2 2.2 0 0 0 1.371.447 4.8 4.8 0 0 0 1.644-.298l.274 1.041c-.548.297-1.37.446-2.055.446-.96 0-1.782-.297-2.33-.892s-.822-1.487-.822-2.528.274-1.933.822-2.527c.548-.744 1.233-1.041 2.193-1.041.959 0 1.644.297 2.055 1.04.275.447.549 1.19.549 2.082m-1.371-.446c0-.446-.137-.892-.274-1.19-.274-.445-.548-.594-1.096-.594-.412 0-.823.149-1.097.595-.274.297-.411.743-.411 1.19z"/></g><defs><clipPath id="a"><path fill="#fff" d="M0 .393h178.165v57.99H0z"/></clipPath></defs></svg>
